X: 9
T: The Ships In Full Sail
R: jig
M: 6/8
L: 1/8
K: Gmaj
|: DEGA BAGB | dBAG BcdB | edge d2BG | AGEA BGEG |
| DEGA BAGB | dBAG Bcd2 | efge dBGB |1 AGEF G2 GE :|2 AGEF G2Bc ||
|: dgfg bgfg | a2ga bgeg | dgfg bgfg | a2bg ageg |
| dgfg bgfg | a2ga bged | efge dBGB | AGEF G2Bc :||
|: ~d2 dB d2 (3Bcd | edef efge | ~d2 Bd dBAG | AGBG A2Bc |
| d2 dB d2Bd | edef efge | d2BG ABGA |1 BGEF G2Bc :|2 BGF G2 GE ||


Tune 261	Setting 12999

